juniorguru/images/logos/fakturoid.svg

<?xml version="1.0" encoding="UTF-8"?>
<svg width="810" height="197" viewBox="0 0 810 197" xmlns="http://www.w3.org/2000/svg">
 <path d="m117.99 129.06c0 7.213 5.85 11.506 16 11.506 9.982 0 14.801-4.808 14.801-14.255v-8.928h-8.258c-17.557 0-22.543 4.118-22.543 11.677z" clip-rule="evenodd" fill="#1A1919" fill-rule="evenodd"/>
 <path d="m100.96 0.48471c-55.673 0-100.81 35.811-100.81 79.987v35.817c0 44.176 45.139 79.993 100.81 79.993 55.673 0 100.8-35.817 100.8-79.993v-35.817c0-44.177-45.127-79.987-100.8-79.987zm-32.724 118.5h-9.9824v38.754h-9.2884c-7.4033 0-13.943-5.666-13.943-13.741v-61.213c0-18.895 8.7797-42.555 35.152-48.414 26.695-5.932 34.161 7.1222 34.161 7.1222s-16.703-0.2281-29.79 9.9829c-7.4511 5.8119-16.031 18.628-16.292 33.201v18.004c16.48 3.155 29.671-2.319 33.562-4.0492l0.6675-0.0843s-1.1817 20.438-24.247 20.438zm103.09 7.154c0 19.579-14.452 33.144-35.104 33.144h-4.648c-22.027 0-37.172-12.362-37.172-29.364 0-16.486 12.046-29.021 46.124-29.021h8.085v-1.2061c0-13.051-6.194-22.325-19.964-22.325-16.692 0-25.981 6.3535-29.426 10.648h-0.8585v-7.3834c0-10.304 9.2944-22.667 33.728-22.667 20.652 0 39.236 14.941 39.236 46.879v21.295z" clip-rule="evenodd" fill="#1A1919" fill-rule="evenodd"/>
 <path d="m293.07 70.202h-28.957v23.507h33.896v5.6706c0 6.0834-4.802 9.4034-9.058 9.4034h-24.152v40.378h-7.823c-6.861 0-10.978-3.596-10.978-11.062v-69.004c0-11.754 4.665-14.658 15.645-14.658h42.131v5.9469c0 4.4232-3.295 9.8175-10.704 9.8175zm55.058 46.16h-6.598c-14.021 0-18.008 3.316-18.008 9.395 0 5.805 4.675 9.259 12.785 9.259 7.972 0 11.821-3.868 11.821-11.469v-7.185zm-10.035 33.718h-3.712c-17.594 0-29.69-9.949-29.69-23.631 0-13.267 9.622-23.354 36.839-23.354h6.461v-0.968c0-10.501-4.949-13.682-15.945-13.682-13.335 0-20.757 5.1147-23.506 8.5688h-0.687v-5.9431c0-8.2899 7.422-18.24 26.942-18.24 16.494 0 31.34 7.7377 31.34 33.443v17.136c0 15.754-11.546 26.671-28.042 26.671zm55.039-87.903v44.645c7.22-9.4279 14.301-18.994 22.908-27.174 4.444-4.1593 8.886-4.8531 14.857-4.8531h10.691v0.6938c-5.276 4.4363-22.633 24.123-30.406 33.968 5.969 7.348 11.801 14.974 18.464 21.767 6.805 6.794 9.859 8.18 14.44 9.707-1.943 5.961-4.997 9.15-12.634 9.15-4.165 0-9.025-1.941-12.218-5.131-9.58-9.843-17.911-20.935-26.102-31.889v36.465l-5.97 0.138c-8.607 0.14-12.774-4.436-12.774-13.171v-86.653h5.971c9.025 0 12.773 5.1288 12.773 12.338zm61.821 1.0853c2.476-2.9197 5.779-5.1463 8.667-5.1463h4.264v16.964h25.724v7.6481c0 3.8935-3.438 8.8996-11.005 8.8996h-14.719v29.339c0 9.732 4.264 13.488 11.693 13.488 5.915 0 10.455-0.836 13.344-2.642h0.687v6.673c0 7.648-5.503 12.514-16.232 12.514-18.708 0-27.788-10.289-27.788-27.809v-45.05c0-7.3703 1.376-10.151 5.365-14.878zm80.518 87.738c-18.269 0-32.693-12.168-32.693-33.878v-42.452h3.435c10.576 0 15.247 4.5641 15.247 13.275v27.38c0 13.689 6.594 19.22 14.973 19.22 7.556 0 12.913-5.255 12.913-17.977v-41.898h3.298c10.713 0 15.247 4.5641 15.247 13.275v27.932c0 23.231-10.852 35.123-32.42 35.123zm86.75-58.432c-2.77-1.1072-5.958-2.2143-10.808-2.2143-8.317 0-12.892 4.5656-12.892 15.912v42.895h-5.126c-8.316 0-13.582-4.151-13.582-11.9v-34.315c0-14.945 7.9-29.196 27.58-29.196 11.503 0 15.522 6.5022 15.522 12.176v6.6417h-0.694zm37.004-3.1064c-10.689 0-16.101 8.8709-16.101 21.206 0 14.831 5.412 23.701 17.764 23.701 10.827 0 16.102-8.87 16.102-21.068 0-14.968-5.553-23.839-17.765-23.839zm1.663-16.631c22.485 0 35.393 18.017 35.393 37.838 0 22.453-12.908 40.332-37.056 40.332-22.485 0-35.393-17.879-35.393-37.699 0-22.453 12.908-40.471 37.056-40.471zm67.476 78.17c-14.325 0-22.177-8.212-22.177-23.384v-50.803h5.235c8.262 0 13.223 4.4522 13.223 13.918v35.076c0 7.515 3.168 9.881 11.294 9.881h3.444v4.037c0 8.074-3.167 11.275-11.019 11.275zm-13.086-81.148c-5.923 0-10.743-5.0111-10.743-10.996 0-5.9858 4.82-10.857 10.743-10.857s10.881 4.8708 10.881 10.857c0 5.9845-4.958 10.996-10.881 10.996zm57.889 18.82c-9.415 0-15.507 9.1213-15.507 21.146 0 15.477 8.03 25.566 18.691 25.566 10.385 0 14.955-7.739 14.955-21.282 0-18.657-8.169-25.43-18.139-25.43zm0.968 62.328c-19.66 0-34.752-17.137-34.752-37.59 0-24.462 11.908-40.354 33.644-40.354 7.479 0 15.648 5.2517 18.556 11.747v-34.964h5.676c8.862 0 12.739 5.1122 12.739 12.574v52.516c0 21.698-10.246 36.07-35.863 36.07z" clip-rule="evenodd" fill="#1A1919" fill-rule="evenodd"/>
</svg>

<svg width="810" height="197" viewBox="0 0 810 197" fill="none" xmlns="http://www.w3.org/2000/svg">
<path fill-rule="evenodd" clip-rule="evenodd" d="M117.987 129.062C117.987 136.275 123.837 140.568 133.987 140.568C143.969 140.568 148.788 135.76 148.788 126.313V117.385H140.53C122.973 117.385 117.987 121.503 117.987 129.062Z" fill="#1A1919"/>
<path fill-rule="evenodd" clip-rule="evenodd" d="M100.961 0.484711C45.2884 0.484711 0.149658 36.2956 0.149658 80.4722V116.289C0.149658 160.465 45.2884 196.282 100.961 196.282C156.634 196.282 201.761 160.465 201.761 116.289V80.4722C201.761 36.2956 156.634 0.484711 100.961 0.484711ZM68.2374 118.987H58.255V157.741H48.9666C41.5633 157.741 35.024 152.075 35.024 144V82.7867C35.024 63.8921 43.8037 40.232 70.1757 34.3724C96.8709 28.4404 104.337 41.4946 104.337 41.4946C104.337 41.4946 87.634 41.2665 74.5472 51.4775C67.0961 57.2894 58.5166 70.1054 58.255 84.6788V102.683C74.7345 105.838 87.926 100.364 91.8173 98.6338L92.4848 98.5495C92.4848 98.5495 91.3031 118.987 68.2374 118.987ZM171.331 126.141C171.331 145.72 156.879 159.285 136.227 159.285H131.579C109.552 159.285 94.4065 146.923 94.4065 129.921C94.4065 113.435 106.453 100.9 140.53 100.9H148.615V99.6939C148.615 86.6433 142.421 77.3688 128.651 77.3688C111.959 77.3688 102.67 83.7223 99.2251 88.0169H98.3666V80.6335C98.3666 70.329 107.661 57.9666 132.095 57.9666C152.747 57.9666 171.331 72.9074 171.331 104.846V126.141Z" fill="#1A1919"/>
<path fill-rule="evenodd" clip-rule="evenodd" d="M293.072 70.2019H264.115V93.709H298.011V99.3796C298.011 105.463 293.209 108.783 288.953 108.783H264.801C264.801 136.3 264.801 149.161 264.801 149.161H256.978C250.117 149.161 246 145.565 246 138.099V69.0954C246 57.3412 250.665 54.4375 261.645 54.4375H303.776C303.776 54.9901 303.776 60.3844 303.776 60.3844C303.776 64.8076 300.481 70.2019 293.072 70.2019ZM348.13 116.362H341.532C327.511 116.362 323.524 119.678 323.524 125.757C323.524 131.562 328.199 135.016 336.309 135.016C344.281 135.016 348.13 131.148 348.13 123.547V116.362ZM338.095 150.08H334.383C316.789 150.08 304.693 140.131 304.693 126.449C304.693 113.182 314.315 103.095 341.532 103.095H347.993V102.127C347.993 91.6258 343.044 88.4452 332.048 88.4452C318.713 88.4452 311.291 93.5599 308.542 97.014H307.855V91.0709C307.855 82.781 315.277 72.8304 334.797 72.8304C351.291 72.8304 366.137 80.5681 366.137 106.273V123.409C366.137 139.163 354.591 150.08 338.095 150.08ZM393.134 62.1771V106.822C400.354 97.3941 407.435 87.8277 416.042 79.6478C420.486 75.4885 424.928 74.7947 430.899 74.7947H441.59V75.4885C436.314 79.9248 418.957 99.6115 411.184 109.456C417.153 116.804 422.985 124.43 429.648 131.223C436.453 138.017 439.507 139.403 444.088 140.93C442.145 146.891 439.091 150.08 431.454 150.08C427.289 150.08 422.429 148.139 419.236 144.949C409.656 135.106 401.325 124.014 393.134 113.06V149.525L387.164 149.663C378.557 149.803 374.39 145.227 374.39 136.492V49.8393H380.361C389.386 49.8393 393.134 54.9681 393.134 62.1771ZM454.955 63.2624C457.431 60.3427 460.734 58.1161 463.622 58.1161H467.886V75.0804H493.61V82.7285C493.61 86.622 490.172 91.6281 482.605 91.6281H467.886V120.967C467.886 130.699 472.15 134.455 479.579 134.455C485.494 134.455 490.034 133.619 492.923 131.813H493.61V138.486C493.61 146.134 488.107 151 477.378 151C458.67 151 449.59 140.711 449.59 123.191V78.1405C449.59 70.7702 450.966 67.9894 454.955 63.2624ZM535.473 151C517.204 151 502.78 138.832 502.78 117.122V74.6696H506.215C516.791 74.6696 521.462 79.2337 521.462 87.9446V115.325C521.462 129.014 528.056 134.545 536.435 134.545C543.991 134.545 549.348 129.29 549.348 116.568V74.6696H552.646C563.359 74.6696 567.893 79.2337 567.893 87.9446V115.877C567.893 139.108 557.041 151 535.473 151ZM622.223 92.5681C619.453 91.4609 616.265 90.3538 611.415 90.3538C603.098 90.3538 598.523 94.9194 598.523 106.266V149.161H593.397C585.081 149.161 579.815 145.01 579.815 137.261V102.946C579.815 88.0012 587.715 73.75 607.395 73.75C618.898 73.75 622.917 80.2522 622.917 85.9264V92.5681H622.223ZM659.227 89.4617C648.538 89.4617 643.126 98.3326 643.126 110.668C643.126 125.499 648.538 134.369 660.89 134.369C671.717 134.369 676.992 125.499 676.992 113.301C676.992 98.3326 671.439 89.4617 659.227 89.4617ZM660.89 72.8304C683.375 72.8304 696.283 90.8477 696.283 110.668C696.283 133.121 683.375 151 659.227 151C636.742 151 623.834 133.121 623.834 113.301C623.834 90.8477 636.742 72.8304 660.89 72.8304ZM728.366 151C714.041 151 706.189 142.788 706.189 127.616C706.189 123.301 706.189 76.8128 706.189 76.8128H711.424C719.686 76.8128 724.647 81.265 724.647 90.7312V125.807C724.647 133.322 727.815 135.688 735.941 135.688H739.385V139.725C739.385 147.799 736.218 151 728.366 151ZM715.28 69.8522C709.357 69.8522 704.537 64.8411 704.537 58.8566C704.537 52.8708 709.357 48 715.28 48C721.203 48 726.161 52.8708 726.161 58.8566C726.161 64.8411 721.203 69.8522 715.28 69.8522ZM773.169 88.6718C763.754 88.6718 757.662 97.7931 757.662 109.818C757.662 125.295 765.692 135.384 776.353 135.384C786.738 135.384 791.308 127.645 791.308 114.102C791.308 95.4448 783.139 88.6718 773.169 88.6718ZM774.137 151C754.477 151 739.385 133.863 739.385 113.41C739.385 88.9479 751.293 73.0562 773.029 73.0562C780.508 73.0562 788.677 78.3079 791.585 84.8034V49.8393H797.261C806.123 49.8393 810 54.9515 810 62.4135V114.93C810 136.628 799.754 151 774.137 151Z" fill="#1A1919"/>
</svg>
